;FLAVOR:UltiGCode
;TIME:4705
;MATERIAL:1100
;MATERIAL2:0
;NOZZLE_DIAMETER:0.250000
;NOZZLE_DIAMETER2:0.250000

;Layer count: 185
;LAYER:0
M107
G0 F9000 X104.288 Y95.942 Z0.150
;TYPE:SKIRT
G1 F600 X105.062 Y95.135 E0.04193
G1 X105.243 Y94.951 E0.05161
G1 X106.154 Y94.192 E0.09608
G1 X107.193 Y93.480 E0.14331
G1 X108.164 Y92.953 E0.18474
G1 X108.390 Y92.831 E0.19437
G1 X109.582 Y92.347 E0.24261
G1 X110.725 Y92.014 E0.28726
G1 X111.794 Y91.811 E0.32806
G1 X112.044 Y91.764 E0.33760
G1 X113.087 Y91.683 E0.37683
G1 X113.313 Y91.663 E0.38534
G1 X114.365 Y91.690 E0.42480
G1 X114.608 Y91.697 E0.43392
G1 X115.785 Y91.850 E0.47843
G1 X117.015 Y92.130 E0.52573
G1 X118.221 Y92.539 E0.57349
G1 X119.378 Y93.069 E0.62121
G1 X120.478 Y93.718 E0.66911
G1 X121.373 Y94.380 E0.71085
G1 X121.577 Y94.533 E0.72041
G1 X122.452 Y95.343 E0.76513
G1 X123.292 Y96.284 E0.81243
G1 X124.039 Y97.317 E0.86023
G1 X124.675 Y98.422 E0.90805
G1 X125.194 Y99.584 E0.95577
G1 X125.541 Y100.643 E0.99756
G1 X125.620 Y100.890 E1.00728
G1 X125.862 Y102.055 E1.05190
G1 X125.996 Y103.260 E1.09737
G1 X126.025 Y104.062 E1.12746
G1 X126.006 Y104.724 E1.15230
G1 X125.889 Y105.862 E1.19520
G1 X125.640 Y107.101 E1.24259
G1 X125.309 Y108.163 E1.28431
G1 X125.232 Y108.405 E1.29383
G1 X124.754 Y109.498 E1.33857
G1 X124.140 Y110.602 E1.38594
G1 X123.412 Y111.644 E1.43360
G1 X122.577 Y112.609 E1.48146
G1 X121.649 Y113.481 E1.52921
G1 X120.765 Y114.156 E1.57092
G1 X120.558 Y114.311 E1.58062
G1 X119.534 Y114.926 E1.62541
G1 X118.398 Y115.467 E1.67259
G1 X117.200 Y115.895 E1.72030
G1 X115.961 Y116.198 E1.76813
G1 X114.698 Y116.371 E1.81594
G1 X113.590 Y116.408 E1.85751
G1 X113.335 Y116.416 E1.86708
G1 X112.141 Y116.324 E1.91199
G1 X111.042 Y116.132 E1.95382
G1 X110.790 Y116.084 E1.96344
G1 X109.660 Y115.756 E2.00757
G1 X108.637 Y115.348 E2.04887
G1 X108.400 Y115.252 E2.05846
G1 X107.346 Y114.691 E2.10323
G1 X106.296 Y113.995 E2.15047
G1 X105.311 Y113.187 E2.19825
G1 X104.531 Y112.399 E2.23982
G1 X104.352 Y112.216 E2.24942
G1 X103.609 Y111.277 E2.29433
G1 X102.923 Y110.217 E2.34167
G1 X102.345 Y109.082 E2.38944
G1 X101.887 Y107.894 E2.43718
G1 X101.598 Y106.827 E2.47864
G1 X101.531 Y106.580 E2.48824
G1 X101.346 Y105.392 E2.53332
G1 X101.283 Y104.305 E2.57415
G1 X101.268 Y104.053 E2.58362
G1 X101.321 Y103.001 E2.62312
G1 X101.335 Y102.756 E2.63232
G1 X101.517 Y101.589 E2.67661
G1 X101.829 Y100.366 E2.72395
G1 X102.269 Y99.170 E2.77173
G1 X102.831 Y98.026 E2.81953
G1 X103.505 Y96.948 E2.86721
G1 X104.288 Y95.942 E2.91501
G0 F9000 X104.477 Y96.106
G1 F600 X105.242 Y95.309 E2.95644
G1 X105.413 Y95.135 E2.96559
G1 X106.305 Y94.391 E3.00915
G1 X107.323 Y93.693 E3.05543
G1 X108.283 Y93.173 E3.09638
G1 X108.496 Y93.058 E3.10545
G1 X109.664 Y92.583 E3.15274
G1 X110.784 Y92.258 E3.19647
G1 X111.841 Y92.057 E3.23682
G1 X112.077 Y92.012 E3.24583
G1 X113.106 Y91.932 E3.28453
G1 X113.320 Y91.914 E3.29258
G1 X114.358 Y91.940 E3.33152
G1 X114.588 Y91.947 E3.34015
G1 X115.741 Y92.096 E3.38375
G1 X116.947 Y92.371 E3.43013
G1 X118.129 Y92.772 E3.47694
G1 X119.262 Y93.291 E3.52367
G1 X120.340 Y93.927 E3.57061
G1 X121.224 Y94.581 E3.61184
G1 X121.417 Y94.726 E3.62090
G1 X122.274 Y95.518 E3.66466
G1 X123.097 Y96.441 E3.71103
G1 X123.828 Y97.453 E3.75785
G1 X124.452 Y98.536 E3.80472
G1 X124.960 Y99.674 E3.85145
G1 X125.304 Y100.720 E3.89274
G1 X125.378 Y100.954 E3.90195
G1 X125.614 Y102.094 E3.94560
G1 X125.747 Y103.278 E3.99028
G1 X125.775 Y104.063 E4.01974
G1 X125.757 Y104.707 E4.04390
G1 X125.641 Y105.824 E4.08601
G1 X125.398 Y107.039 E4.13247
G1 X125.070 Y108.087 E4.17365
G1 X124.998 Y108.316 E4.18266
G1 X124.530 Y109.387 E4.22649
G1 X123.928 Y110.469 E4.27292
G1 X123.214 Y111.490 E4.31964
G1 X122.397 Y112.436 E4.36651
G1 X121.487 Y113.290 E4.41331
G1 X120.614 Y113.957 E4.45451
G1 X120.418 Y114.104 E4.46370
G1 X119.416 Y114.705 E4.50751
G1 X118.302 Y115.236 E4.55379
G1 X117.128 Y115.655 E4.60054
G1 X115.914 Y115.952 E4.64740
G1 X114.676 Y116.122 E4.69426
G1 X113.583 Y116.158 E4.73527
G1 X113.341 Y116.165 E4.74435
G1 X112.172 Y116.075 E4.78832
G1 X111.086 Y115.886 E4.82966
G1 X110.849 Y115.841 E4.83870
G1 X109.742 Y115.519 E4.88194
G1 X108.730 Y115.116 E4.92279
G1 X108.506 Y115.025 E4.93185
G1 X107.474 Y114.476 E4.97569
G1 X106.445 Y113.794 E5.02198
G1 X105.480 Y113.002 E5.06880
G1 X104.709 Y112.224 E5.10987
G1 X104.539 Y112.050 E5.11899
G1 X103.812 Y111.131 E5.16293
G1 X103.140 Y110.092 E5.20934
G1 X102.574 Y108.980 E5.25613
G1 X102.125 Y107.816 E5.30291
G1 X101.839 Y106.762 E5.34387
G1 X101.776 Y106.528 E5.35295
G1 X101.595 Y105.366 E5.39705
G1 X101.532 Y104.291 E5.43744
G1 X101.518 Y104.052 E5.44641
G1 X101.571 Y103.014 E5.48539
G1 X101.584 Y102.782 E5.49410
G1 X101.762 Y101.639 E5.53748
G1 X102.068 Y100.441 E5.58385
G1 X102.499 Y99.268 E5.63071
G1 X103.050 Y98.148 E5.67752
G1 X103.711 Y97.091 E5.72427
G1 X104.477 Y96.106 E5.77106
G10
G0 F9000 X106.940 Y98.233
;TYPE:WALL-OUTER
G11
G1 F600 X107.575 Y97.572 E5.80543
G1 X108.267 Y96.987 E5.83941
G1 X109.020 Y96.471 E5.87365
G1 X109.887 Y96.001 E5.91063
G1 X110.734 Y95.657 E5.94491
G1 X111.541 Y95.422 E5.97643
G1 X112.506 Y95.239 E6.01326
G1 X113.357 Y95.173 E6.04527
G1 X113.424 Y95.167 E6.04779
G1 X114.332 Y95.191 E6.08185
G1 X115.169 Y95.299 E6.11350
G1 X116.067 Y95.504 E6.14804
G1 X116.921 Y95.794 E6.18187
G1 X117.754 Y96.175 E6.21621
G1 X118.548 Y96.644 E6.25080
G1 X119.328 Y97.221 E6.28718
G1 X119.957 Y97.803 E6.31932
G1 X120.562 Y98.480 E6.35336
G1 X121.097 Y99.220 E6.38761
G1 X121.550 Y100.007 E6.42166
G1 X121.922 Y100.840 E6.45587
G1 X122.211 Y101.719 E6.49057
G1 X122.232 Y101.785 E6.49316
G1 X122.401 Y102.600 E6.52438
G1 X122.503 Y103.511 E6.55875
G1 X122.523 Y104.071 E6.57977
G1 X122.511 Y104.500 E6.59586
G1 X122.425 Y105.331 E6.62719
G1 X122.243 Y106.239 E6.66192
G1 X121.954 Y107.164 E6.69826
G1 X121.611 Y107.948 E6.73035
G1 X121.169 Y108.744 E6.76449
G1 X120.650 Y109.486 E6.79845
G1 X120.047 Y110.184 E6.83304
G1 X119.380 Y110.810 E6.86734
G1 X118.653 Y111.365 E6.90164
G1 X117.883 Y111.835 E6.93547
G1 X117.053 Y112.230 E6.96994
G1 X116.187 Y112.540 E7.00443
G1 X115.310 Y112.754 E7.03828
G1 X114.399 Y112.879 E7.07277
G1 X113.422 Y112.912 E7.10942
G1 X112.571 Y112.846 E7.14143
G1 X111.671 Y112.689 E7.17569
G1 X111.608 Y112.677 E7.17810
G1 X110.797 Y112.441 E7.20977
G1 X109.885 Y112.078 E7.24658
G1 X109.139 Y111.681 E7.27827
G1 X108.381 Y111.178 E7.31238
G1 X107.672 Y110.597 E7.34676
G1 X106.981 Y109.898 E7.38362
G1 X106.456 Y109.235 E7.41533
G1 X105.957 Y108.463 E7.44980
G1 X105.549 Y107.660 E7.48358
G1 X105.219 Y106.804 E7.51798
G1 X104.961 Y105.854 E7.55490
G1 X104.830 Y105.014 E7.58678
G1 X104.773 Y104.039 E7.62340
G1 X104.819 Y103.133 E7.65742
G1 X104.951 Y102.286 E7.68957
G1 X105.177 Y101.400 E7.72386
G1 X105.490 Y100.550 E7.75782
G1 X105.893 Y99.731 E7.79205
G1 X106.374 Y98.961 E7.82610
G1 X106.940 Y98.233 E7.86068
G0 F9000 X107.107 Y98.383
G0 X111.711 Y98.771
G0 X111.935 Y98.790
G1 F600 X111.960 Y99.087 E7.87186
G1 X112.038 Y99.375 E7.88304
G1 X112.164 Y99.646 E7.89425
G1 X112.335 Y99.891 E7.90546
G1 X112.546 Y100.102 E7.91665
G1 X112.791 Y100.273 E7.92785
G1 X113.062 Y100.399 E7.93906
G1 X113.350 Y100.477 E7.95025
G1 X113.648 Y100.502 E7.96146
G1 X113.945 Y100.477 E7.97264
G1 X114.233 Y100.399 E7.98383
G1 X114.504 Y100.273 E7.99503
G1 X114.749 Y100.102 E8.00624
G1 X114.960 Y99.891 E8.01743
G1 X115.131 Y99.646 E8.02863
G1 X115.257 Y99.375 E8.03984
G1 X115.335 Y99.087 E8.05103
G1 X115.359 Y98.797 E8.06194
G1 X115.335 Y98.492 E8.07341
G1 X115.257 Y98.204 E8.08460
G1 X115.131 Y97.933 E8.09581
G1 X114.960 Y97.688 E8.10701
G1 X114.749 Y97.477 E8.11820
G1 X114.504 Y97.306 E8.12941
G1 X114.233 Y97.180 E8.14061
G1 X113.945 Y97.102 E8.15180
G1 X113.648 Y97.077 E8.16298
G1 X113.350 Y97.102 E8.17420
G1 X113.062 Y97.180 E8.18538
G1 X112.791 Y97.306 E8.19659
G1 X112.546 Y97.477 E8.20780
G1 X112.335 Y97.688 E8.21899
G1 X112.164 Y97.933 E8.23019
G1 X112.038 Y98.204 E8.24140
G1 X111.960 Y98.492 E8.25259
G1 X111.935 Y98.790 E8.26380
G0 F9000 X111.711 Y98.771
G0 X111.883 Y99.807
G0 X113.047 Y102.185
G0 X113.130 Y102.393
G1 F600 X112.861 Y102.503 E8.27470
G1 X112.618 Y102.654 E8.28543
G1 X112.397 Y102.851 E8.29653
G1 X112.215 Y103.078 E8.30744
G1 X112.074 Y103.333 E8.31837
G1 X111.978 Y103.608 E8.32929
G1 X111.928 Y103.894 E8.34018
G1 X111.928 Y104.185 E8.35109
G1 X111.978 Y104.471 E8.36198
G1 X112.074 Y104.746 E8.37290
G1 X112.215 Y105.001 E8.38383
G1 X112.397 Y105.228 E8.39474
G1 X112.614 Y105.421 E8.40563
G1 X112.857 Y105.573 E8.41638
G1 X113.130 Y105.686 E8.42746
G1 X113.414 Y105.749 E8.43837
G1 X113.705 Y105.764 E8.44929
G1 X113.994 Y105.730 E8.46020
G1 X114.274 Y105.648 E8.47115
G1 X114.535 Y105.520 E8.48205
G1 X114.810 Y105.321 E8.49478
G1 X114.814 Y102.761 E8.59078
G1 X114.539 Y102.563 E8.60348
G1 X114.274 Y102.431 E8.61459
G1 X113.994 Y102.349 E8.62553
G1 X113.705 Y102.315 E8.63644
G1 X113.414 Y102.330 E8.64737
G1 X113.130 Y102.393 E8.65827
G0 F9000 X113.093 Y102.310
;TYPE:SKIN
G1 F1200 X108.060 Y97.277 E8.92519
G0 F9000 X107.869 Y97.439
G1 F1200 X112.843 Y102.413 E9.18898
G0 F9000 X112.623 Y102.546
G1 F1200 X107.677 Y97.601 E9.45125
G0 F9000 X107.499 Y97.776
G1 F1200 X112.427 Y102.705 E9.71262
G0 F9000 X112.255 Y102.886
G1 F1200 X107.326 Y97.956 E9.97405
G0 F9000 X107.152 Y98.137
G1 F1200 X112.106 Y103.090 E10.23675
G0 F9000 X111.983 Y103.321
G1 F1200 X106.982 Y98.320 E10.50197
G0 F9000 X106.827 Y98.519
G1 F1200 X111.893 Y103.584 E10.77061
G0 F9000 X111.839 Y103.884
G1 F1200 X106.673 Y98.718 E11.04457
G0 F9000 X106.519 Y98.917
G1 F1200 X111.848 Y104.247 E11.32721
G0 F9000 X111.972 Y104.724
G1 F1200 X106.373 Y99.125 E11.62415
G0 F9000 X106.237 Y99.343
G1 F1200 X118.344 Y111.449 E12.26619
G0 F9000 X118.563 Y111.315
G1 F1200 X112.959 Y105.711 E12.56339
G0 F9000 X113.439 Y105.837
G1 F1200 X118.767 Y111.166 E12.84597
G0 F9000 X118.967 Y111.012
G1 F1200 X113.796 Y105.841 E13.12021
G0 F9000 X114.099 Y105.790
G1 F1200 X119.167 Y110.859 E13.38900
G0 F9000 X119.364 Y110.702
G1 F1200 X114.364 Y105.702 E13.65417
G0 F9000 X114.598 Y105.583
G1 F1200 X119.547 Y110.531 E13.91660
G0 F9000 X119.729 Y110.360
G1 F1200 X114.803 Y105.434 E14.17784
G0 F9000 X114.897 Y105.175
G1 F1200 X119.911 Y110.189 E14.44375
G0 F9000 X120.083 Y110.007
G1 F1200 X114.898 Y104.822 E14.71873
G0 F9000 X114.898 Y104.468
G1 F1200 X120.247 Y109.817 E15.00240
G0 F9000 X120.411 Y109.627
G1 F1200 X114.899 Y104.115 E15.29472
G0 F9000 X114.899 Y103.762
G1 F1200 X120.575 Y109.438 E15.59573
G0 F9000 X120.721 Y109.231
G1 F1200 X114.899 Y103.409 E15.90449
G0 F9000 X114.900 Y103.056
G1 F1200 X120.867 Y109.023 E16.22094
G0 F9000 X121.012 Y108.814
G1 F1200 X108.875 Y96.677 E16.86460
G0 F9000 X109.086 Y96.535
G1 F1200 X111.953 Y99.402 E17.01665
G0 F9000 X111.859 Y98.954
G1 F1200 X109.315 Y96.411 E17.15154
G0 F9000 X109.544 Y96.286
G1 F1200 X111.861 Y98.603 E17.27442
G0 F9000 X111.918 Y98.306
G1 F1200 X109.774 Y96.162 E17.38812
G0 F9000 X110.010 Y96.045
G1 F1200 X112.013 Y98.048 E17.49434
G0 F9000 X112.136 Y97.817
G1 F1200 X110.262 Y95.943 E17.59373
G0 F9000 X110.514 Y95.841
G1 F1200 X112.285 Y97.612 E17.68765
G0 F9000 X112.461 Y97.435
G1 F1200 X110.766 Y95.740 E17.77754
G0 F9000 X111.039 Y95.660
G1 F1200 X112.664 Y97.285 E17.86372
G0 F9000 X112.893 Y97.160
G1 F1200 X111.313 Y95.580 E17.94751
G0 F9000 X111.589 Y95.503
G1 F1200 X113.151 Y97.064 E18.03032
G0 F9000 X113.445 Y97.005
G1 F1200 X111.886 Y95.446 E18.11300
G0 F9000 X112.183 Y95.390
G1 F1200 X113.794 Y97.000 E18.19841
G0 F9000 X114.238 Y97.090
G1 F1200 X112.480 Y95.333 E18.29161
G0 F9000 X112.805 Y95.304
G1 F1200 X122.383 Y104.882 E18.79956
G0 F9000 X122.416 Y104.562
G1 F1200 X113.133 Y95.279 E19.29187
G0 F9000 X113.464 Y95.256
G1 F1200 X122.430 Y104.222 E19.76736
G0 F9000 X122.427 Y103.865
G1 F1200 X113.827 Y95.266 E20.22342
G0 F9000 X114.190 Y95.275
G1 F1200 X122.412 Y103.497 E20.65946
G0 F9000 X122.368 Y103.099
G1 F1200 X114.580 Y95.312 E21.07245
G0 F9000 X114.987 Y95.365
G1 F1200 X122.323 Y102.701 E21.46150
G0 F9000 X122.242 Y102.266
G1 F1200 X115.423 Y95.448 E21.82311
G0 F9000 X115.882 Y95.552
G1 F1200 X122.150 Y101.821 E22.15555
G0 F9000 X121.978 Y101.295
G1 F1200 X116.389 Y95.706 E22.45195
G0 F9000 X116.934 Y95.897
G1 F1200 X121.785 Y100.748 E22.70921
G0 F9000 X121.498 Y100.108
G1 F1200 X117.585 Y96.195 E22.91673
G0 F9000 X118.409 Y96.666
G1 F1200 X121.038 Y99.294 E23.05613
G0 F9000 X120.918 Y99.361
G0 X115.567 Y99.001
G0 X115.430 Y98.989
G1 F1200 X122.240 Y105.800 E23.41731
G0 F9000 X122.181 Y106.095
G1 F1200 X115.371 Y99.284 E23.77849
G0 F9000 X115.274 Y99.541
G1 F1200 X122.108 Y106.375 E24.14092
G0 F9000 X122.024 Y106.645
G1 F1200 X115.150 Y99.770 E24.50549
G0 F9000 X115.000 Y99.974
G1 F1200 X121.940 Y106.914 E24.87354
G0 F9000 X121.851 Y107.179
G1 F1200 X114.823 Y100.151 E25.24626
G0 F9000 X114.619 Y100.300
G1 F1200 X121.743 Y107.424 E25.62406
G0 F9000 X121.635 Y107.669
G1 F1200 X114.388 Y100.423 E26.00837
G0 F9000 X114.129 Y100.518
G1 F1200 X121.526 Y107.915 E26.40065
G0 F9000 X121.401 Y108.142
G1 F1200 X113.832 Y100.574 E26.80203
G0 F9000 X113.481 Y100.576
G1 F1200 X121.275 Y108.370 E27.21537
G0 F9000 X121.149 Y108.598
G1 F1200 X113.033 Y100.482 E27.64579
G0 F9000 X113.002 Y100.615
G0 X113.354 Y102.112
G0 X113.383 Y102.246
G1 F1200 X108.252 Y97.115 E27.91790
G0 F9000 X108.456 Y96.965
G1 F1200 X113.719 Y102.228 E28.19701
G0 F9000 X114.145 Y102.301
G1 F1200 X108.665 Y96.821 E28.48764
G0 F9000 X108.742 Y96.934
G0 X106.217 Y99.635
G0 X106.102 Y99.561
G1 F1200 X118.124 Y111.583 E29.12520
G0 F9000 X117.905 Y111.717
G1 F1200 X105.966 Y99.779 E29.75833
G0 F9000 X106.083 Y99.850
G0 X113.648 Y96.751
G0 X115.209 Y97.480
G0 X115.479 Y98.163
G0 X115.346 Y98.198
G1 F1200 X122.349 Y105.202 E30.12975
G0 F9000 X122.299 Y105.505
G1 F1200 X115.433 Y98.639 E30.49387
G0 F9000 X115.571 Y98.629
G0 X115.412 Y99.807
G0 X114.001 Y100.796
G0 X112.338 Y100.351
G0 X105.972 Y100.077
G0 X105.849 Y100.016
G1 F1200 X117.671 Y111.837 E31.12080
G0 F9000 X117.431 Y111.951
G1 F1200 X105.732 Y100.252 E31.74124
G0 F9000 X105.615 Y100.489
G1 F1200 X117.191 Y112.065 E32.35515
G0 F9000 X116.946 Y112.173
G1 F1200 X105.511 Y100.738 E32.96158
G0 F9000 X105.416 Y100.997
G1 F1200 X116.686 Y112.266 E33.55923
G0 F9000 X116.425 Y112.359
G1 F1200 X105.321 Y101.255 E34.14811
G0 F9000 X105.235 Y101.522
G1 F1200 X116.165 Y112.453 E34.72779
G0 F9000 X115.882 Y112.523
G1 F1200 X105.163 Y101.804 E35.29625
G0 F9000 X105.091 Y102.086
G1 F1200 X115.597 Y112.591 E35.85339
G0 F9000 X115.312 Y112.661
G1 F1200 X105.025 Y102.374 E36.39894
G0 F9000 X104.978 Y102.680
G1 F1200 X115.003 Y112.705 E36.93060
G0 F9000 X114.693 Y112.748
G1 F1200 X104.930 Y102.985 E37.44836
G0 F9000 X104.897 Y103.306
G1 F1200 X114.382 Y112.791 E37.95138
G0 F9000 X114.040 Y112.802
G1 F1200 X104.879 Y103.642 E38.43718
G0 F9000 X104.862 Y103.978
G1 F1200 X113.697 Y112.813 E38.90573
G0 F9000 X113.347 Y112.817
G1 F1200 X104.878 Y104.347 E39.35489
G0 F9000 X104.900 Y104.723
G1 F1200 X112.963 Y112.787 E39.78253
G0 F9000 X112.580 Y112.757
G1 F1200 X104.935 Y105.112 E40.18796
G0 F9000 X105.000 Y105.530
G1 F1200 X112.151 Y112.681 E40.56720
G0 F9000 X111.722 Y112.606
G1 F1200 X105.083 Y105.967 E40.91929
G0 F9000 X105.215 Y106.452
G1 F1200 X111.238 Y112.475 E41.23871
G0 F9000 X110.725 Y112.316
G1 F1200 X105.377 Y106.968 E41.52233
G0 F9000 X105.598 Y107.543
G1 F1200 X110.139 Y112.084 E41.76315
G0 F9000 X109.446 Y111.744
G1 F1200 X105.942 Y108.240 E41.94898
G0 F9000 X106.519 Y109.170
G1 F1200 X108.498 Y111.150 E42.05396
G0 F9000 X108.793 Y110.703
;LAYER:1
M106 S28
G0 X108.397 Y111.190 Z0.190
